frontend/src/assets/map-icon-halo.svg

<?xml version="1.0" encoding="UTF-8" standalone="no"?>
<svg
   xmlns="http://www.w3.org/2000/svg"
   width="24"
   height="24"
   viewBox="0 0 24 24"
   fill="#fff"
  >
  <path
    fill="white"
    d="M 2.4003906 -0.5 C 0.80766337 -0.5 -0.48828125 0.81069368 -0.48828125 2.4003906 L -0.5 25.207031 L 5.0078125 19.699219 L 21.599609 19.699219 C 23.192337 19.699219 24.5 18.393509 24.5 16.800781 L 24.5 2.4003906 C 24.5 0.80766337 23.192337 -0.5 21.599609 -0.5 L 2.4003906 -0.5 z M 2.4003906 0.5 L 21.599609 0.5 C 22.646882 0.5 23.5 1.3531179 23.5 2.4003906 L 23.5 16.800781 C 23.5 17.848054 22.646882 18.699219 21.599609 18.699219 L 4.59375 18.699219 L 0.5 22.792969 L 0.51171875 2.4003906 C 0.51171875 1.3500876 1.3531179 0.5 2.4003906 0.5 z "
 />
</svg>

<svg xmlns="http://www.w3.org/2000/svg" width="24" height="24" fill="#fff" viewBox="0 0 24 24"><path d="M2.4-.5C.808-.5-.488.81-.488 2.4L-.5 25.207l5.508-5.508H21.6a2.91 2.91 0 0 0 2.9-2.898V2.4c0-1.593-1.308-2.9-2.9-2.9zm0 1h19.2c1.047 0 1.9.853 1.9 1.9v14.4a1.9 1.9 0 0 1-1.9 1.9H4.594L.5 22.792.512 2.4C.512 1.35 1.353.5 2.4.5"/></svg>
